;FLAVOR:Marlin
;TIME:5324
;Filament used: 1.66973m
;Layer height: 0.12
;MINX:78.831
;MINY:91.89
;MINZ:0.2
;MAXX:129.991
;MAXY:145.198
;MAXZ:35.24
;Generated with Cura_SteamEngine main
M140 S60
M105
M190 S60
M104 S200
M105
M109 S200
M82 ;absolute extrusion mode
; Ender 3 Custom Start G-code
G92 E0 ; Reset Extruder
G28 ; Home all axes
G29 ;BlTouch
G1 Z2.0 F3000 ; Move Z Axis up little to prevent scratching of Heat Bed
G1 X0.1 Y20 Z0.3 F5000.0 ; Move to start position
G1 X0.1 Y200.0 Z0.3 F1500.0 E15 ; Draw the first line
G1 X0.4 Y200.0 Z0.3 F5000.0 ; Move to side a little
G1 X0.4 Y20 Z0.3 F1500.0 E30 ; Draw the second line
G92 E0 ; Reset Extruder
G1 Z2.0 F3000 ; Move Z Axis up little to prevent scratching of Heat Bed
G1 X5 Y20 Z0.3 F5000.0 ; Move over to prevent blob squish
G92 E0
G92 E0
G1 F1500 E-6
;LAYER_COUNT:293
;LAYER:0
M107
G0 F6000 X85.229 Y96.008 Z0.2
G0 X80.292 Y107.438
;TYPE:SKIRT
G1 F1500 E0
G1 F1200 X80.351 Y106.389 E0.03495
G1 X80.394 Y105.859 E0.05263
G1 X80.443 Y105.392 E0.06825
G1 X80.635 Y104.201 E0.10837
G1 X80.808 Y103.466 E0.13349
G1 X80.928 Y103.02 E0.14885
G1 X81.312 Y101.854 E0.18968
G1 X81.564 Y101.238 E0.21182
G1 X81.751 Y100.814 E0.22723
G1 X82.335 Y99.676 E0.26977
G1 X82.699 Y99.078 E0.29306
G1 X82.967 Y98.665 E0.30943
G1 X83.71 Y97.651 E0.35124
G1 X84.2 Y97.079 E0.37629
G1 X84.569 Y96.674 E0.39452
G1 X85.229 Y96.008 E0.4257
G1 X85.787 Y95.526 E0.45023
G1 X86.261 Y95.143 E0.47049
G1 X87.247 Y94.432 E0.51093
G1 X87.882 Y94.04 E0.53575
G1 X88.278 Y93.812 E0.55094
G1 X89.403 Y93.248 E0.5928
G1 X90.033 Y92.986 E0.61549
G1 X90.477 Y92.816 E0.63131
G1 X91.699 Y92.428 E0.67395
G1 X92.401 Y92.261 E0.69795
G1 X92.848 Y92.168 E0.71314
G1 X94.084 Y91.983 E0.7547
G1 X94.841 Y91.926 E0.77995
G1 X95.463 Y91.899 E0.80066
G1 X96.077 Y91.89 E0.82108
G1 X114.243 Y92.118 E1.42534
G1 X114.943 Y92.137 E1.44863
G1 X115.647 Y92.175 E1.47208
G1 X116.532 Y92.262 E1.50165
G1 X117.721 Y92.457 E1.54173
G1 X118.454 Y92.631 E1.56678
G1 X118.896 Y92.751 E1.58202
G1 X119.989 Y93.11 E1.62028
G1 X120.708 Y93.404 E1.64612
G1 X121.035 Y93.55 E1.65803
G1 X122.253 Y94.188 E1.70376
G1 X122.921 Y94.593 E1.72974
G1 X123.701 Y95.113 E1.76092
G1 X124.238 Y95.53 E1.78354
G1 X124.812 Y96.021 E1.80866
G1 X125.204 Y96.378 E1.82629
G1 X125.869 Y97.039 E1.85748
G1 X126.35 Y97.593 E1.88188
G1 X126.735 Y98.069 E1.90224
G1 X127.456 Y99.072 E1.94333
G1 X127.828 Y99.674 E1.96687
G1 X128.064 Y100.083 E1.98257
G1 X128.633 Y101.217 E2.02477
G1 X128.892 Y101.839 E2.04718
G1 X129.062 Y102.282 E2.06296
G1 X129.449 Y103.498 E2.1054
G1 X129.611 Y104.17 E2.1284
G1 X129.706 Y104.62 E2.14369
G1 X129.888 Y105.797 E2.1833
G1 X129.953 Y106.61 E2.21043
G1 X129.981 Y107.236 E2.23127
G1 X129.991 Y107.865 E2.2522
G1 X129.724 Y129.274 E2.96432
G1 X129.702 Y130.15 E2.99346
G1 X129.675 Y130.712 E3.01218
G1 X129.63 Y131.25 E3.03013
G1 X129.571 Y131.795 E3.04837
G1 X129.431 Y132.722 E3.07955
G1 X129.267 Y133.433 E3.10382
G1 X129.108 Y134.032 E3.12443
G1 X128.714 Y135.234 E3.1665
G1 X128.462 Y135.85 E3.18864
G1 X128.275 Y136.274 E3.20405
G1 X127.703 Y137.393 E3.24585
G1 X127.295 Y138.061 E3.27188
G1 X127.032 Y138.462 E3.28783
G1 X126.356 Y139.384 E3.32586
G1 X125.827 Y140.007 E3.35304
G1 X125.462 Y140.408 E3.37108
G1 X124.801 Y141.074 E3.40229
G1 X124.251 Y141.552 E3.42652
G1 X123.772 Y141.94 E3.44702
G1 X122.773 Y142.66 E3.48798
G1 X122.08 Y143.084 E3.515
G1 X121.638 Y143.334 E3.53189
G1 X120.803 Y143.76 E3.56307
G1 X120.251 Y143.995 E3.58302
G1 X119.636 Y144.237 E3.60501
G1 X118.299 Y144.667 E3.65172
G1 X117.651 Y144.821 E3.67387
G1 X117.193 Y144.917 E3.68944
G1 X115.945 Y145.105 E3.73141
G1 X115.185 Y145.162 E3.75676
G1 X114.563 Y145.189 E3.77747
G1 X113.949 Y145.198 E3.79789
G1 X95.945 Y144.973 E4.39675
G1 X95.078 Y144.951 E4.4256
G1 X93.914 Y144.891 E4.46437
G1 X91.205 Y144.781 E4.55454
G1 X90.286 Y144.756 E4.58512
G1 X89.35 Y144.691 E4.61633
G1 X88.423 Y144.546 E4.64753
G1 X87.513 Y144.323 E4.6787
G1 X86.624 Y144.023 E4.7099
G1 X85.764 Y143.649 E4.74109
G1 X84.939 Y143.202 E4.7723
G1 X84.155 Y142.687 E4.8035
G1 X83.562 Y142.229 E4.82842
G1 X83.299 Y142.011 E4.83978
G1 X82.603 Y141.382 E4.87098
G1 X81.963 Y140.696 E4.90219
G1 X81.384 Y139.959 E4.93336
G1 X81.012 Y139.406 E4.95553
G1 X80.84 Y139.133 E4.96626
G1 X80.374 Y138.319 E4.99746
G1 X79.98 Y137.468 E5.02865
G1 X79.808 Y137.025 E5.04445
G1 X79.626 Y136.524 E5.06218
G1 X79.377 Y135.78 E5.08828
G1 X79.124 Y134.877 E5.11947
G1 X78.949 Y133.956 E5.15065
G1 X78.853 Y133.023 E5.18184
G1 X78.833 Y132.405 E5.20241
G1 X78.831 Y131.419 E5.2352
G1 X78.963 Y120.967 E5.58287
G1 X78.985 Y120.095 E5.61188
G1 X79.11 Y118.703 E5.65836
G1 X79.51 Y116.117 E5.7454
G1 X79.823 Y113.641 E5.8284
G1 X80.069 Y111.128 E5.91239
G1 X80.242 Y108.621 E5.99597
G1 X80.292 Y107.438 E6.03535
G1 F1500 E0.03535
G0 F6000 X80.468 Y111.159
G1 F1500 E6.03535
G1 F1200 X80.642 Y108.631 E6.11963
G1 X80.684 Y107.619 E6.15332
G1 X80.751 Y106.412 E6.19353
G1 X80.792 Y105.901 E6.21058
G1 X80.841 Y105.434 E6.22619
G1 X81.025 Y104.286 E6.26486
G1 X81.194 Y103.57 E6.28933
G1 X81.314 Y103.124 E6.30469
G1 X81.685 Y102.001 E6.34403
G1 X81.93 Y101.4 E6.36562
G1 X82.117 Y100.976 E6.38103
G1 X82.679 Y99.879 E6.42203
G1 X83.034 Y99.296 E6.44473
G1 X83.302 Y98.883 E6.4611
G1 X84.019 Y97.906 E6.50141
G1 X84.496 Y97.348 E6.52583
G1 X84.865 Y96.943 E6.54405
G1 X85.514 Y96.29 E6.57467
G1 X86.038 Y95.837 E6.59771
G1 X86.512 Y95.454 E6.61798
G1 X87.463 Y94.769 E6.65696
G1 X88.082 Y94.387 E6.68115
G1 X88.478 Y94.159 E6.69635
G1 X89.562 Y93.615 E6.73669
G1 X90.176 Y93.36 E6.7588
G1 X90.62 Y93.19 E6.77461
G1 X91.797 Y92.816 E6.81569
G1 X92.483 Y92.652 E6.83915
G1 X92.93 Y92.559 E6.85434
G1 X94.121 Y92.381 E6.89439
G1 X94.858 Y92.326 E6.91897
G1 X95.48 Y92.299 E6.93968
G1 X96.072 Y92.29 E6.95937
G1 X114.233 Y92.518 E7.56345
G1 X114.933 Y92.537 E7.58674
G1 X115.62 Y92.574 E7.60963
G1 X116.489 Y92.659 E7.63867
G1 X117.635 Y92.847 E7.67729
G1 X118.349 Y93.017 E7.70171
G1 X118.791 Y93.137 E7.71694
G1 X119.845 Y93.483 E7.75384
G1 X120.545 Y93.769 E7.77899
G1 X120.872 Y93.915 E7.7909
G1 X122.046 Y94.53 E7.83498
G1 X122.714 Y94.935 E7.86096
G1 X123.479 Y95.446 E7.89156
G1 X123.982 Y95.838 E7.91277
G1 X124.542 Y96.317 E7.93728
G1 X124.934 Y96.674 E7.95491
G1 X125.587 Y97.323 E7.98553
G1 X126.039 Y97.845 E8.0085
G1 X126.424 Y98.321 E8.02886
G1 X127.119 Y99.287 E8.06844
G1 X127.481 Y99.874 E8.09138
G1 X127.717 Y100.283 E8.10709
G1 X128.266 Y101.376 E8.14777
G1 X128.518 Y101.982 E8.1696
G1 X128.688 Y102.425 E8.18538
G1 X129.062 Y103.597 E8.2263
G1 X129.219 Y104.252 E8.2487
G1 X129.314 Y104.702 E8.264
G1 X129.49 Y105.837 E8.3022
G1 X129.553 Y106.628 E8.32859
G1 X129.581 Y107.254 E8.34943
G1 X129.591 Y107.86 E8.36959
G1 X129.324 Y129.269 E9.08171
G1 X129.302 Y130.14 E9.11069
G1 X129.276 Y130.688 E9.12894
G1 X129.232 Y131.207 E9.14626
G1 X129.173 Y131.752 E9.16449
G1 X129.035 Y132.662 E9.19511
G1 X128.88 Y133.331 E9.21795
G1 X128.721 Y133.93 E9.23856
G1 X128.341 Y135.087 E9.27906
G1 X128.096 Y135.688 E9.30065
G1 X127.909 Y136.112 E9.31606
G1 X127.357 Y137.191 E9.35637
G1 X126.961 Y137.841 E9.38169
G1 X126.698 Y138.242 E9.39764
G1 X126.046 Y139.131 E9.43431
G1 X125.531 Y139.738 E9.46078
G1 X125.166 Y140.139 E9.47882
G1 X124.517 Y140.792 E9.50944
G1 X123.999 Y141.241 E9.53224
G1 X123.52 Y141.629 E9.55274
G1 X122.558 Y142.323 E9.5922
G1 X121.884 Y142.735 E9.61847
G1 X121.442 Y142.985 E9.63536
G1 X120.621 Y143.403 E9.666
G1 X120.104 Y143.623 E9.68469
G1 X119.489 Y143.865 E9.70667
G1 X118.201 Y144.279 E9.75167
G1 X117.569 Y144.43 E9.77328
G1 X117.111 Y144.526 E9.78884
G1 X115.908 Y144.706 E9.8293
G1 X115.168 Y144.762 E9.85398
G1 X114.546 Y144.789 E9.87469
G1 X113.954 Y144.798 E9.89438
G1 X95.95 Y144.573 E10.49325
G1 X94.789 Y144.539 E10.53188
G1 X93.884 Y144.489 E10.56202
G1 X91.232 Y144.381 E10.6503
G1 X90.296 Y144.356 E10.68145
G1 X89.378 Y144.291 E10.71206
G1 X88.469 Y144.147 E10.74267
G1 X87.575 Y143.925 E10.7733
G1 X86.705 Y143.625 E10.80391
G1 X85.863 Y143.252 E10.83454
G1 X85.058 Y142.807 E10.86513
G1 X84.293 Y142.293 E10.89579
G1 X83.817 Y141.921 E10.91588
G1 X83.554 Y141.703 E10.92724
G1 X82.872 Y141.085 E10.95785
G1 X82.245 Y140.411 E10.98847
G1 X81.68 Y139.684 E11.0191
G1 X81.351 Y139.192 E11.03878
G1 X81.179 Y138.919 E11.04951
G1 X80.722 Y138.12 E11.08013
G1 X80.184 Y136.888 E11.12484
G1 X79.889 Y136.06 E11.15408
G1 X79.757 Y135.656 E11.16821
G1 X79.51 Y134.769 E11.19884
G1 X79.34 Y133.865 E11.22943
G1 X79.249 Y132.948 E11.26008
G1 X79.233 Y132.403 E11.27821
G1 X79.231 Y131.424 E11.31078
G1 X79.363 Y120.972 E11.65844
G1 X79.385 Y120.106 E11.68725
G1 X79.506 Y118.764 E11.73207
G1 X79.904 Y116.192 E11.81863
G1 X80.22 Y113.693 E11.90241
G1 X80.468 Y111.159 E11.98709
G1 F1500 E5.98709
G0 F6000 X80.302 Y116.231
G1 F1500 E11.98709
G1 F1200 X80.617 Y113.746 E12.07041
G1 X80.866 Y111.192 E12.15576
G1 X81.043 Y108.637 E12.24094
G1 X81.091 Y107.483 E12.27935
G1 X81.15 Y106.434 E12.3143
G1 X81.19 Y105.943 E12.33068
G1 X81.239 Y105.476 E12.3463
G1 X81.416 Y104.371 E12.38352
G1 X81.58 Y103.674 E12.40734
G1 X81.7 Y103.228 E12.4227
G1 X82.057 Y102.147 E12.46056
G1 X82.296 Y101.561 E12.48161
G1 X82.483 Y101.137 E12.49703
G1 X83.024 Y100.081 E12.53649
G1 X83.37 Y99.514 E12.55858
G1 X83.638 Y99.101 E12.57496
G1 X84.327 Y98.16 E12.61375
G1 X84.791 Y97.617 E12.6375
G1 X85.16 Y97.212 E12.65573
G1 X85.797 Y96.572 E12.68576
G1 X86.289 Y96.148 E12.70736
G1 X86.763 Y95.765 E12.72763
G1 X87.678 Y95.106 E12.76514
G1 X88.282 Y94.733 E12.78875
G1 X88.678 Y94.505 E12.80394
G1 X89.721 Y93.982 E12.84275
G1 X90.319 Y93.733 E12.8643
G1 X90.763 Y93.563 E12.88011
G1 X91.896 Y93.204 E12.91964
G1 X92.564 Y93.044 E12.94249
G1 X93.011 Y92.951 E12.95767
G1 X94.158 Y92.78 E12.99624
G1 X94.876 Y92.726 E13.02019
G1 X95.498 Y92.699 E13.0409
G1 X96.067 Y92.69 E13.05983
G1 X114.072 Y92.915 E13.65872
G1 X114.922 Y92.937 E13.687
G1 X115.593 Y92.974 E13.70935
G1 X116.446 Y93.057 E13.73786
G1 X117.548 Y93.238 E13.775
G1 X118.244 Y93.403 E13.79879
G1 X118.686 Y93.523 E13.81403
G1 X119.7 Y93.856 E13.84952
G1 X120.381 Y94.134 E13.87399
G1 X120.708 Y94.28 E13.8859
G1 X121.838 Y94.872 E13.92833
G1 X122.506 Y95.277 E13.95431
G1 X123.257 Y95.779 E13.98436
G1 X123.727 Y96.146 E14.00419
G1 X124.273 Y96.613 E14.02809
G1 X124.665 Y96.97 E14.04572
G1 X125.305 Y97.607 E14.07575
G1 X125.728 Y98.097 E14.09728
G1 X126.113 Y98.573 E14.11765
G1 X126.782 Y99.502 E14.15572
G1 X127.135 Y100.074 E14.17808
G1 X127.371 Y100.483 E14.19378
G1 X127.899 Y101.535 E14.23293
G1 X128.145 Y102.126 E14.25422
G1 X128.315 Y102.569 E14.27001
G1 X128.674 Y103.696 E14.30935
G1 X128.828 Y104.335 E14.33121
G1 X128.923 Y104.785 E14.34651
G1 X129.092 Y105.877 E14.38326
G1 X129.154 Y106.646 E14.40892
G1 X129.182 Y107.272 E14.42976
G1 X129.191 Y107.855 E14.44915
G1 X128.924 Y129.264 E15.16127
G1 X128.902 Y130.129 E15.19005
G1 X128.876 Y130.665 E15.2079
G1 X128.835 Y131.164 E15.22455
G1 X128.776 Y131.709 E15.24279
G1 X128.639 Y132.601 E15.2728
G1 X128.494 Y133.228 E15.29421
G1 X128.335 Y133.827 E15.31482
G1 X127.969 Y134.941 E15.35382
G1 X127.73 Y135.527 E15.37487
G1 X127.543 Y135.951 E15.39028
G1 X127.012 Y136.989 E15.42906
G1 X126.626 Y137.622 E15.45372
G1 X126.363 Y138.023 E15.46967
G1 X125.736 Y138.878 E15.50494
G1 X125.235 Y139.469 E15.5307
G1 X124.87 Y139.87 E15.54874
G1 X124.233 Y140.51 E15.57877
G1 X123.747 Y140.93 E15.60014
G1 X123.268 Y141.318 E15.62064
G1 X122.342 Y141.986 E15.65862
G1 X121.687 Y142.387 E15.68416
G1 X121.245 Y142.637 E15.70105
G1 X120.44 Y143.047 E15.7311
G1 X119.958 Y143.251 E15.7485
G1 X119.343 Y143.493 E15.77049
G1 X118.104 Y143.891 E15.81377
G1 X117.487 Y144.038 E15.83487
G1 X117.029 Y144.134 E15.85043
G1 X115.872 Y144.308 E15.88934
G1 X115.15 Y144.362 E15.91343
G1 X114.528 Y144.389 E15.93413
G1 X113.959 Y144.398 E15.95306
G1 X95.955 Y144.173 E16.55192
G1 X94.811 Y144.14 E16.58999
G1 X93.923 Y144.091 E16.61957
G1 X91.186 Y143.98 E16.71068
G1 X90.307 Y143.956 E16.73992
G1 X89.406 Y143.892 E16.76996
G1 X88.515 Y143.748 E16.79998
G1 X87.639 Y143.526 E16.83004
G1 X86.787 Y143.228 E16.86006
G1 X85.965 Y142.855 E16.89008
G1 X85.178 Y142.411 E16.92014
G1 X84.434 Y141.899 E16.95018
G1 X83.81 Y141.395 E16.97686
G1 X83.141 Y140.788 E17.0069
G1 X82.528 Y140.125 E17.03693
G1 X81.976 Y139.41 E17.06698
G1 X81.689 Y138.979 E17.0842
G1 X81.517 Y138.706 E17.09493
G1 X81.07 Y137.922 E17.12495
G1 X80.56 Y136.752 E17.1674
G1 X80.269 Y135.936 E17.19621
G1 X80.137 Y135.532 E17.21035
G1 X79.895 Y134.662 E17.24038
G1 X79.731 Y133.774 E17.27042
G1 X79.646 Y132.875 E17.30045
G1 X79.633 Y132.402 E17.31619
G1 X79.631 Y131.429 E17.34855
G1 X79.763 Y120.977 E17.69622
G1 X79.785 Y120.116 E17.72486
G1 X79.901 Y118.825 E17.76797
G1 X80.302 Y116.231 E17.85528
G1 F1500 E11.85528
G0 F6000 X90.651 Y132.854
G1 F1500 E17.85528
G1 F1200 X90.715 Y132.948 E17.85906
G1 X90.681 Y132.972 E17.86044
G1 X90.651 Y132.854 E17.86449
G0 F6000 X90.021 Y132.284
G1 F1200 X90.051 Y129.905 E17.94362
G1 X90.079 Y130.327 E17.95769
G1 X90.273 Y131.184 E17.98692
G1 X90.589 Y131.971 E18.01512
G1 X91.008 Y132.673 E18.04231
G1 X91.303 Y133.03 E18.05772
G1 X90.589 Y133.52 E18.08652
G1 X90.459 Y133.411 E18.09216
G1 X90.324 Y133.195 E18.10063
G1 X90.135 Y132.451 E18.12617
G1 X90.021 Y132.284 E18.13289
G1 F1500 E12.13289
;MESH:Eugene_Clean1.STL
G0 F6000 X92.577 Y132.344
G0 X114.857 Y133.564
;TYPE:WALL-INNER
G1 F1500 E18.13289
G1 F1200 X115.441 Y133.432 E18.1528
G1 X115.991 Y133.214 E18.17248
G1 X116.51 Y132.906 E18.19255
G1 X116.967 Y132.525 E18.21234
G1 X117.361 Y132.076 E18.23221
G1 X117.683 Y131.564 E18.25233
G1 X117.918 Y131.006 E18.27247
G1 X118.059 Y130.445 E18.29171
G1 X118.116 Y129.829 E18.31228
G1 X118.397 Y107.595 E19.05185
G1 X118.377 Y107.277 E19.06244
G1 X118.357 Y106.975 E19.07251
G1 X118.224 Y106.393 E19.09237
G1 X118.004 Y105.84 E19.11216
G1 X117.699 Y105.329 E19.13196
G1 X117.318 Y104.871 E19.15177
G1 X116.87 Y104.479 E19.17157
G1 X116.37 Y104.163 E19.19124
G1 X115.814 Y103.926 E19.21135
G1 X115.249 Y103.782 E19.23074
G1 X114.624 Y103.723 E19.25162
G1 X95.783 Y103.484 E19.87832
G1 X95.169 Y103.524 E19.89879
G1 X94.585 Y103.656 E19.9187
G1 X94.034 Y103.874 E19.93841
G1 X93.516 Y104.182 E19.95845
G1 X93.058 Y104.564 E19.97829
G1 X92.664 Y105.012 E19.99813
G1 X92.343 Y105.524 E20.01823
G1 X92.108 Y106.082 E20.03837
G1 X91.967 Y106.643 E20.05761
G1 X91.91 Y107.26 E20.07822
G1 X91.628 Y129.492 E20.81772
G1 X91.669 Y130.111 E20.83835
G1 X91.801 Y130.696 E20.8583
G1 X92.019 Y131.245 E20.87794
G1 X92.325 Y131.758 E20.89781
G1 X92.705 Y132.215 E20.91758
G1 X93.156 Y132.61 E20.93752
G1 X93.652 Y132.924 E20.95705
G1 X94.213 Y133.162 E20.97731
G1 X94.777 Y133.307 E20.99668
G1 X95.404 Y133.365 E21.01763
G1 X114.243 Y133.604 E21.64426
G1 X114.857 Y133.564 E21.66473
G0 F6000 X114.915 Y133.961
;TYPE:WALL-OUTER
G1 F1200 X115.559 Y133.816 E21.68668
G1 X116.168 Y133.574 E21.70848
G1 X116.742 Y133.234 E21.73067
G1 X117.247 Y132.812 E21.75256
G1 X117.683 Y132.316 E21.77452
G1 X118.039 Y131.749 E21.79679
G1 X118.298 Y131.133 E21.81902
G1 X118.455 Y130.513 E21.84029
G1 X118.516 Y129.85 E21.86243
G1 X118.797 Y107.585 E22.60303
G1 X118.776 Y107.251 E22.61416
G1 X118.754 Y106.917 E22.62529
G1 X118.607 Y106.273 E22.64726
G1 X118.364 Y105.662 E22.66913
G1 X118.027 Y105.097 E22.69101
G1 X117.605 Y104.591 E22.71293
G1 X117.11 Y104.157 E22.73482
G1 X116.556 Y103.807 E22.75662
G1 X115.942 Y103.546 E22.77881
G1 X115.317 Y103.386 E22.80027
G1 X114.645 Y103.323 E22.82272
G1 X95.773 Y103.084 E23.45045
G1 X95.111 Y103.127 E23.47252
G1 X94.467 Y103.272 E23.49447
